src/assets/filled/SmsTracking.svg

<?xml version="1.0" encoding="UTF-8"?>
<svg width="24" height="24" viewBox="0 0 24 24" xmlns="http://www.w3.org/2000/svg">
 <path d="m6 13c-2.76 0-5 2.23-5 5s2.24 5 5 5 5-2.24 5-5-2.23-5-5-5zm-2.04 2.96h2.04c0.38 0 0.68 0.31 0.68 0.68s-0.3 0.68-0.68 0.68h-2.04c-0.38 0-0.68-0.31-0.68-0.68s0.3-0.68 0.68-0.68zm4.08 4.08h-4.08c-0.38 0-0.68-0.31-0.68-0.68s0.31-0.68 0.68-0.68h4.09c0.38 0 0.68 0.31 0.68 0.68s-0.31 0.68-0.69 0.68z"/>
 <path d="m17 3h-10c-3 0-5 1.5-5 5v3.14c0 0.73 0.75 1.19 1.42 0.9 1.1-0.48 2.35-0.66 3.66-0.45 2.62 0.43 4.76 2.5 5.29 5.1 0.15 0.76 0.17 1.5 0.07 2.21-0.08 0.59 0.4 1.11 0.99 1.11h3.57c3 0 5-1.5 5-5v-7.01c0-3.5-2-5-5-5zm0.47 5.59-3.13 2.5c-0.66 0.53-1.5 0.79-2.34 0.79s-1.69-0.26-2.34-0.79l-3.13-2.5c-0.32-0.26-0.37-0.74-0.12-1.06 0.26-0.32 0.73-0.38 1.05-0.12l3.13 2.5c0.76 0.61 2.05 0.61 2.81 0l3.13-2.5c0.32-0.26 0.8-0.21 1.05 0.12 0.26 0.32 0.21 0.8-0.11 1.06z"/>
</svg>

<svg width="24" height="24" viewBox="0 0 24 24"  xmlns="http://www.w3.org/2000/svg">
<path d="M6 13C3.24 13 1 15.23 1 18C1 20.77 3.24 23 6 23C8.76 23 11 20.76 11 18C11 15.24 8.77 13 6 13ZM3.96 15.96H6C6.38 15.96 6.68 16.27 6.68 16.64C6.68 17.01 6.38 17.32 6 17.32H3.96C3.58 17.32 3.28 17.01 3.28 16.64C3.28 16.27 3.58 15.96 3.96 15.96ZM8.04 20.04H3.96C3.58 20.04 3.28 19.73 3.28 19.36C3.28 18.99 3.59 18.68 3.96 18.68H8.05C8.43 18.68 8.73 18.99 8.73 19.36C8.73 19.73 8.42 20.04 8.04 20.04Z" />
<path d="M17 3H7C4 3 2 4.5 2 8V11.14C2 11.87 2.75 12.33 3.42 12.04C4.52 11.56 5.77 11.38 7.08 11.59C9.7 12.02 11.84 14.09 12.37 16.69C12.52 17.45 12.54 18.19 12.44 18.9C12.36 19.49 12.84 20.01 13.43 20.01H17C20 20.01 22 18.51 22 15.01V8C22 4.5 20 3 17 3ZM17.47 8.59L14.34 11.09C13.68 11.62 12.84 11.88 12 11.88C11.16 11.88 10.31 11.62 9.66 11.09L6.53 8.59C6.21 8.33 6.16 7.85 6.41 7.53C6.67 7.21 7.14 7.15 7.46 7.41L10.59 9.91C11.35 10.52 12.64 10.52 13.4 9.91L16.53 7.41C16.85 7.15 17.33 7.2 17.58 7.53C17.84 7.85 17.79 8.33 17.47 8.59Z" />
</svg>
